svgs/sharp-light/window-frame.svg

<svg xmlns="http://www.w3.org/2000/svg" viewBox="0 0 512 512"><!--! Font Awesome Pro 6.6.0 by @fontawesome - https://fontawesome.com License - https://fontawesome.com/license (Commercial License) Copyright 2024 Fonticons, Inc. --><path d="M240 288l0 192L64 480l0-192 176 0zm32 192l0-192 176 0 0 192-176 0zm208 0l0-448 0-32L448 0 64 0 32 0l0 32 0 448-16 0L0 480l0 32 16 0 16 0 32 0 384 0 32 0 16 0 16 0 0-32-16 0-16 0zM448 256l-176 0 0-224 176 0 0 224zM64 32l176 0 0 224L64 256 64 32z"/></svg>

<svg xmlns="http://www.w3.org/2000/svg" viewBox="0 0 512 512"><!--! Font Awesome Pro 6.4.2 by @fontawesome - https://fontawesome.com License - https://fontawesome.com/license (Commercial License) Copyright 2023 Fonticons, Inc. --><path d="M240 288V480H64V288H240zm32 192V288H448V480H272zm208 0V32 0H448 64 32V32 480H16 0v32H16 32 64 448h32 16 16V480H496 480zM448 256H272V32H448V256zM64 32H240V256H64V32z"/></svg>
